public/assets/icons/ic_checkIcon.svg

<svg width="56" height="57" viewBox="0 0 56 57" fill="none" xmlns="http://www.w3.org/2000/svg">
<g filter="url(#filter0_dd_1688_9840)">
<path d="M3 6.5C3 4.29086 4.79086 2.5 7 2.5H49C51.2091 2.5 53 4.29086 53 6.5V48.5C53 50.7091 51.2091 52.5 49 52.5H7C4.79086 52.5 3 50.7091 3 48.5V6.5Z" fill="#18181B" fill-opacity="0.9" shape-rendering="crispEdges"/>
</g>
<path d="M44 16.5L24.0625 36.5L15 27.4091" stroke="#FAFAFA" stroke-width="7" stroke-linecap="round" stroke-linejoin="round"/>
<defs>
<filter id="filter0_dd_1688_9840" x="0" y="0.5" width="56" height="56" filterUnits="userSpaceOnUse" color-interpolation-filters="sRGB">
<feFlood flood-opacity="0" result="BackgroundImageFix"/>
<feColorMatrix in="SourceAlpha" type="matrix" values="0 0 0 0 0 0 0 0 0 0 0 0 0 0 0 0 0 0 127 0" result="hardAlpha"/>
<feOffset dy="1"/>
<feGaussianBlur stdDeviation="1.5"/>
<feColorMatrix type="matrix" values="0 0 0 0 0.0627451 0 0 0 0 0.0941176 0 0 0 0 0.156863 0 0 0 0.1 0"/>
<feBlend mode="normal" in2="BackgroundImageFix" result="effect1_dropShadow_1688_9840"/>
<feColorMatrix in="SourceAlpha" type="matrix" values="0 0 0 0 0 0 0 0 0 0 0 0 0 0 0 0 0 0 127 0" result="hardAlpha"/>
<feMorphology radius="1" operator="erode" in="SourceAlpha" result="effect2_dropShadow_1688_9840"/>
<feOffset dy="1"/>
<feGaussianBlur stdDeviation="1"/>
<feComposite in2="hardAlpha" operator="out"/>
<feColorMatrix type="matrix" values="0 0 0 0 0 0 0 0 0 0 0 0 0 0 0 0 0 0 0.1 0"/>
<feBlend mode="normal" in2="effect1_dropShadow_1688_9840" result="effect2_dropShadow_1688_9840"/>
<feBlend mode="normal" in="SourceGraphic" in2="effect2_dropShadow_1688_9840" result="shape"/>
</filter>
</defs>
</svg>

<svg xmlns="http://www.w3.org/2000/svg" width="56" height="57" fill="none"><g filter="url(#a)"><path fill="#18181B" fill-opacity=".9" d="M3 6.5a4 4 0 0 1 4-4h42a4 4 0 0 1 4 4v42a4 4 0 0 1-4 4H7a4 4 0 0 1-4-4v-42Z" shape-rendering="crispEdges"/></g><path stroke="#FAFAFA" stroke-linecap="round" stroke-linejoin="round" stroke-width="7" d="m44 16.5-20 20-9-9"/><defs><filter id="a" width="56" height="56" x="0" y=".5" color-interpolation-filters="sRGB" filterUnits="userSpaceOnUse"><feFlood flood-opacity="0" result="BackgroundImageFix"/><feColorMatrix in="SourceAlpha" result="hardAlpha" values="0 0 0 0 0 0 0 0 0 0 0 0 0 0 0 0 0 0 127 0"/><feOffset dy="1"/><feGaussianBlur stdDeviation="1.5"/><feColorMatrix values="0 0 0 0 0.0627451 0 0 0 0 0.0941176 0 0 0 0 0.156863 0 0 0 0.1 0"/><feBlend in2="BackgroundImageFix" result="effect1_dropShadow_1688_9840"/><feColorMatrix in="SourceAlpha" result="hardAlpha" values="0 0 0 0 0 0 0 0 0 0 0 0 0 0 0 0 0 0 127 0"/><feMorphology in="SourceAlpha" radius="1" result="effect2_dropShadow_1688_9840"/><feOffset dy="1"/><feGaussianBlur stdDeviation="1"/><feComposite in2="hardAlpha" operator="out"/><feColorMatrix values="0 0 0 0 0 0 0 0 0 0 0 0 0 0 0 0 0 0 0.1 0"/><feBlend in2="effect1_dropShadow_1688_9840" result="effect2_dropShadow_1688_9840"/><feBlend in="SourceGraphic" in2="effect2_dropShadow_1688_9840" result="shape"/></filter></defs></svg>
